packages/swarm-icons/src/icons/large/Start Message.svg

<svg xmlns="http://www.w3.org/2000/svg" width="28" height="28" viewBox="0 0 28 28">
  <path fill="#212121" d="M11.536152,21.479435 C12.3219191,21.670731 13.1478572,21.7727273 14,21.7727273 C19.2467051,21.7727273 23.5,17.9060956 23.5,13.1363636 C23.5,8.36663171 19.2467051,4.5 14,4.5 C8.75329488,4.5 4.5,8.36663171 4.5,13.1363636 C4.5,15.6376656 5.66968735,17.8906083 7.53893128,19.4678003 L7.09090909,23.5 L11.536152,21.479435 Z M13,12 L10.5,12 C9.94771525,12 9.5,12.4477153 9.5,13 C9.5,13.5522847 9.94771525,14 10.5,14 L13,14 L13,16.5 C13,17.0522847 13.4477153,17.5 14,17.5 C14.5522847,17.5 15,17.0522847 15,16.5 L15,14 L17.5,14 C18.0522847,14 18.5,13.5522847 18.5,13 C18.5,12.4477153 18.0522847,12 17.5,12 L15,12 L15,9.5 C15,8.94771525 14.5522847,8.5 14,8.5 C13.4477153,8.5 13,8.94771525 13,9.5 L13,12 Z M7.91851498,25.320733 C6.50581727,25.9628683 4.93177507,24.8214359 5.10314162,23.2791369 L5.44050713,20.2428474 C3.57240471,18.3199836 2.5,15.8113344 2.5,13.1363636 C2.5,7.21728171 7.68900988,2.5 14,2.5 C20.3109901,2.5 25.5,7.21728171 25.5,13.1363636 C25.5,19.0554456 20.3109901,23.7727273 14,23.7727273 C13.2439558,23.7727273 12.4965661,23.7050989 11.7656963,23.5720142 L7.91851498,25.320733 Z"/>
</svg>

<svg xmlns="http://www.w3.org/2000/svg" width="28" height="28"><path fill="#212121" d="M11.536 21.48a10.41 10.41 0 002.464.293c5.247 0 9.5-3.867 9.5-8.637 0-4.77-4.253-8.636-9.5-8.636s-9.5 3.867-9.5 8.636c0 2.502 1.17 4.755 3.039 6.332L7.09 23.5l4.445-2.02zM13 12h-2.5a1 1 0 000 2H13v2.5a1 1 0 002 0V14h2.5a1 1 0 000-2H15V9.5a1 1 0 00-2 0V12zM7.919 25.32c-1.413.643-2.987-.499-2.816-2.04l.338-3.037C3.572 18.32 2.5 15.81 2.5 13.136 2.5 7.217 7.689 2.5 14 2.5s11.5 4.717 11.5 10.636c0 5.92-5.189 10.637-11.5 10.637-.756 0-1.503-.068-2.234-.201l-3.847 1.749z"/></svg>
